assets/icons/mail/new.svg

<?xml version="1.0" encoding="UTF-8" standalone="no"?>
<svg
   viewBox="0 0 24 24"
   height="24"
   width="24"
   version="1.1"
   id="svg4"
   sodipodi:docname="new.svg"
   inkscape:version="1.2 (1:1.2.1+202207142221+cd75a1ee6d)"
   xmlns:inkscape="http://www.inkscape.org/namespaces/inkscape"
   xmlns:sodipodi="http://sodipodi.sourceforge.net/DTD/sodipodi-0.dtd"
   xmlns="http://www.w3.org/2000/svg"
   xmlns:svg="http://www.w3.org/2000/svg">
  <defs
     id="defs8" />
  <sodipodi:namedview
     id="namedview6"
     pagecolor="#ffffff"
     bordercolor="#666666"
     borderopacity="1.0"
     inkscape:pageshadow="2"
     inkscape:pageopacity="0.0"
     inkscape:pagecheckerboard="0"
     showgrid="true"
     inkscape:snap-page="true"
     inkscape:zoom="3.5"
     inkscape:cx="9.7142857"
     inkscape:cy="-12.857143"
     inkscape:window-width="1920"
     inkscape:window-height="1043"
     inkscape:window-x="0"
     inkscape:window-y="0"
     inkscape:window-maximized="1"
     inkscape:current-layer="svg4"
     inkscape:showpageshadow="2"
     inkscape:deskcolor="#d1d1d1">
    <inkscape:grid
       type="xygrid"
       id="grid6" />
  </sodipodi:namedview>
  <path
     style="fill:#808080;stroke-width:1"
     d="m 5.0149997,8 -0.35625,0.5475 7.3412503,5.275001 7.34375,-5.295001 -0.35625,-0.5275 -6.9875,4.21625 z"
     id="path1048" />
  <path
     id="path864"
     style="color:#000000;fill:#808080;fill-opacity:1"
     d="M 4.7871094 5 C 4.1101664 5.00559 3.5365049 5.0481536 3.0273438 5.3027344 C 2.6879026 5.4724548 2.3973376 5.7651696 2.2304688 6.140625 C 2.0635993 6.5160804 2 6.9583359 2 7.5 L 2 10 L 2 15 L 2 17.5 C 2 18.041663 2.0635993 18.483919 2.2304688 18.859375 C 2.3973376 19.234831 2.6879026 19.527545 3.0273438 19.697266 C 3.5365049 19.951848 4.1101664 19.9944 4.7871094 20 C 5.0127568 20.0019 5.2500011 20 5.5 20 L 14 20 L 14 19 L 5.5 19 C 4.500005 19 3.7937692 18.96329 3.4726562 18.802734 C 3.3120999 18.722455 3.2276612 18.640167 3.1445312 18.453125 C 3.0614012 18.266083 3 17.958332 3 17.5 L 3 15 L 3 10 L 3 7.5 C 3 7.0416691 3.0614013 6.7339166 3.1445312 6.546875 C 3.2276612 6.3598334 3.3120999 6.2775438 3.4726562 6.1972656 C 3.7937692 6.0367093 4.500005 6 5.5 6 L 18.5 6 C 19.499995 6 20.20623 6.0367086 20.527344 6.1972656 C 20.687901 6.2775443 20.772339 6.3598334 20.855469 6.546875 C 20.938599 6.7339166 21 7.0416691 21 7.5 L 21 10 L 21 13 L 22 13 L 22 10 L 22 7.5 C 22 6.9583359 21.9364 6.5160804 21.769531 6.140625 C 21.602661 5.7651696 21.312099 5.4724548 20.972656 5.3027344 C 20.293775 4.9632932 19.499995 5 18.5 5 L 5.5 5 C 5.2500011 5 5.0127568 4.99814 4.7871094 5 z " />
  <path
     id="rect287"
     style="fill:#808080;stroke:none;stroke-width:2;stroke-linejoin:round;stroke-dasharray:3, 3"
     d="m 18,14 v 3 h -3 v 1 h 3 v 3 h 1 v -3 h 3 v -1 h -3 v -3 z" />
</svg>

<svg height="24" width="24" xmlns="http://www.w3.org/2000/svg"><path style="fill:gray;stroke-width:1" d="m5.015 8-.356.547L12 13.823l7.344-5.296L18.987 8 12 12.216z"/><path style="color:#000;fill:gray;fill-opacity:1" d="M4.787 5c-.677.006-1.25.048-1.76.303-.34.17-.63.462-.797.838C2.064 6.516 2 6.958 2 7.5v10c0 .542.064.984.23 1.36.167.375.458.668.797.837.51.255 1.083.297 1.76.303.226.002.463 0 .713 0H14v-1H5.5c-1 0-1.706-.037-2.027-.197a.615.615 0 0 1-.328-.35C3.06 18.266 3 17.958 3 17.5v-10c0-.458.061-.766.145-.953a.615.615 0 0 1 .328-.35C3.793 6.037 4.5 6 5.5 6h13c1 0 1.706.037 2.027.197.16.08.245.163.328.35.084.187.145.495.145.953V13h1V7.5c0-.542-.064-.984-.23-1.36a1.72 1.72 0 0 0-.797-.837C20.293 4.963 19.5 5 18.5 5h-13c-.25 0-.487-.002-.713 0z"/><path style="fill:gray;stroke:none;stroke-width:2;stroke-linejoin:round;stroke-dasharray:3,3" d="M18 14v3h-3v1h3v3h1v-3h3v-1h-3v-3z"/></svg>
